apps/128/office-calendar.svg

<?xml version="1.0" encoding="UTF-8" standalone="no"?>
<svg
   xmlns:dc="http://purl.org/dc/elements/1.1/"
   xmlns:cc="http://creativecommons.org/ns#"
   xmlns:rdf="http://www.w3.org/1999/02/22-rdf-syntax-ns#"
   xmlns:svg="http://www.w3.org/2000/svg"
   xmlns="http://www.w3.org/2000/svg"
   xmlns:xlink="http://www.w3.org/1999/xlink"
   version="1.1"
   width="128"
   height="128"
   id="svg3049">
  <defs
     id="defs3051">
    <linearGradient
       id="linearGradient3924">
      <stop
         id="stop3926"
         style="stop-color:#ffffff;stop-opacity:1"
         offset="0" />
      <stop
         id="stop3928"
         style="stop-color:#ffffff;stop-opacity:0.23529412"
         offset="0.06316455" />
      <stop
         id="stop3930"
         style="stop-color:#ffffff;stop-opacity:0.15686275"
         offset="0.95056331" />
      <stop
         id="stop3932"
         style="stop-color:#ffffff;stop-opacity:0.39215687"
         offset="1" />
    </linearGradient>
    <radialGradient
       cx="4.9929786"
       cy="43.5"
       r="2.5"
       fx="4.9929786"
       fy="43.5"
       id="radialGradient4093"
       xlink:href="#linearGradient3688-166-749-5"
       gradientUnits="userSpaceOnUse"
       gradientTransform="matrix(2.003784,0,0,1.4,27.98813,-17.4)" />
    <linearGradient
       id="linearGradient3688-166-749-5">
      <stop
         id="stop2883-0"
         style="stop-color:#181818;stop-opacity:1"
         offset="0" />
      <stop
         id="stop2885-5"
         style="stop-color:#181818;stop-opacity:0"
         offset="1" />
    </linearGradient>
    <radialGradient
       cx="4.9929786"
       cy="43.5"
       r="2.5"
       fx="4.9929786"
       fy="43.5"
       id="radialGradient4095"
       xlink:href="#linearGradient3688-464-309-8"
       gradientUnits="userSpaceOnUse"
       gradientTransform="matrix(2.003784,0,0,1.4,-20.01187,-104.4)" />
    <linearGradient
       id="linearGradient3688-464-309-8">
      <stop
         id="stop2889-9"
         style="stop-color:#181818;stop-opacity:1"
         offset="0" />
      <stop
         id="stop2891-4"
         style="stop-color:#181818;stop-opacity:0"
         offset="1" />
    </linearGradient>
    <linearGradient
       x1="25.058096"
       y1="47.027729"
       x2="25.058096"
       y2="39.999443"
       id="linearGradient4097"
       xlink:href="#linearGradient3702-501-757-0"
       gradientUnits="userSpaceOnUse" />
    <linearGradient
       id="linearGradient3702-501-757-0">
      <stop
         id="stop2895-0"
         style="stop-color:#181818;stop-opacity:0"
         offset="0" />
      <stop
         id="stop2897-2"
         style="stop-color:#181818;stop-opacity:1"
         offset="0.5" />
      <stop
         id="stop2899-6"
         style="stop-color:#181818;stop-opacity:0"
         offset="1" />
    </linearGradient>
    <linearGradient
       id="linearGradient3811">
      <stop
         id="stop3813"
         style="stop-color:#000000;stop-opacity:1"
         offset="0" />
      <stop
         id="stop3815"
         style="stop-color:#000000;stop-opacity:0"
         offset="1" />
    </linearGradient>
    <linearGradient
       id="linearGradient3242-7-3-8-0-4-58-06">
      <stop
         id="stop3244-5-8-5-6-4-3-8"
         style="stop-color:#cdf87e;stop-opacity:1"
         offset="0" />
      <stop
         id="stop3246-9-5-1-5-3-0-7"
         style="stop-color:#a2e34f;stop-opacity:1"
         offset="0.26238" />
      <stop
         id="stop3248-7-2-0-7-5-35-9"
         style="stop-color:#68b723;stop-opacity:1"
         offset="0.66093999" />
      <stop
         id="stop3250-8-2-8-5-6-40-4"
         style="stop-color:#1d7e0d;stop-opacity:1"
         offset="1" />
    </linearGradient>
    <linearGradient
       id="linearGradient3510-2">
      <stop
         id="stop3512-7"
         style="stop-color:#000000;stop-opacity:1"
         offset="0" />
      <stop
         id="stop3514-6"
         style="stop-color:#000000;stop-opacity:0"
         offset="1" />
    </linearGradient>
    <linearGradient
       x1="23.99999"
       y1="4.999989"
       x2="23.99999"
       y2="43"
       id="linearGradient3202"
       xlink:href="#linearGradient3924"
       gradientUnits="userSpaceOnUse"
       gradientTransform="matrix(2.7297298,0,0,2.7297298,-1.5135175,1.488319)" />
    <radialGradient
       cx="-4.0287771"
       cy="93.467628"
       r="35.338131"
       fx="-4.0287771"
       fy="93.467628"
       id="radialGradient3213"
       xlink:href="#linearGradient3811"
       gradientUnits="userSpaceOnUse"
       gradientTransform="matrix(1.5563924,0,0,0.16978827,70.270355,102.1321)" />
    <linearGradient
       x1="24.169817"
       y1="-12.24244"
       x2="24.169817"
       y2="48.933952"
       id="linearGradient3278"
       xlink:href="#linearGradient3242-7-3-8-0-4-58-06"
       gradientUnits="userSpaceOnUse"
       gradientTransform="matrix(1.8727272,0,0,1.9230769,4.0727278,6.8461539)" />
    <linearGradient
       x1="23.954144"
       y1="15.999304"
       x2="23.954144"
       y2="19.963179"
       id="linearGradient3285"
       xlink:href="#linearGradient3510-2"
       gradientUnits="userSpaceOnUse"
       gradientTransform="matrix(2.6000001,0,0,0.75,1.6000032,29.000002)" />
    <linearGradient
       x1="25.132275"
       y1="15.499894"
       x2="25.132275"
       y2="48.395687"
       id="linearGradient3288-4"
       xlink:href="#linearGradient4658-2"
       gradientUnits="userSpaceOnUse"
       gradientTransform="matrix(2.3698469,0,0,2.2723986,7.1236823,6.2711497)" />
    <linearGradient
       id="linearGradient4658-2">
      <stop
         id="stop4660-2"
         style="stop-color:#fafafa;stop-opacity:1"
         offset="0" />
      <stop
         id="stop4662-0"
         style="stop-color:#e2e1de;stop-opacity:1"
         offset="1" />
    </linearGradient>
    <linearGradient
       id="linearGradient3924-3">
      <stop
         id="stop3926-4"
         style="stop-color:#ffffff;stop-opacity:1"
         offset="0" />
      <stop
         id="stop3928-9"
         style="stop-color:#ffffff;stop-opacity:0.23529412"
         offset="0.06316455" />
      <stop
         id="stop3930-8"
         style="stop-color:#ffffff;stop-opacity:0.15686275"
         offset="0.95056331" />
      <stop
         id="stop3932-4"
         style="stop-color:#ffffff;stop-opacity:0.39215687"
         offset="1" />
    </linearGradient>
    <linearGradient
       x1="23.99999"
       y1="4.999989"
       x2="23.99999"
       y2="43"
       id="linearGradient4108"
       xlink:href="#linearGradient3924-3"
       gradientUnits="userSpaceOnUse"
       gradientTransform="matrix(2.7297298,0,0,2.7297298,5.7431759,1.6898958)" />
    <linearGradient
       id="linearGradient3924-7">
      <stop
         id="stop3926-3"
         style="stop-color:#ffffff;stop-opacity:1"
         offset="0" />
      <stop
         id="stop3928-2"
         style="stop-color:#ffffff;stop-opacity:0.23529412"
         offset="0.06316455" />
      <stop
         id="stop3930-0"
         style="stop-color:#ffffff;stop-opacity:0.15686275"
         offset="0.95056331" />
      <stop
         id="stop3932-9"
         style="stop-color:#ffffff;stop-opacity:0.39215687"
         offset="1" />
    </linearGradient>
    <linearGradient
       x1="23.99999"
       y1="4.999989"
       x2="23.99999"
       y2="43"
       id="linearGradient4148"
       xlink:href="#linearGradient3924-7"
       gradientUnits="userSpaceOnUse"
       gradientTransform="matrix(2.7297298,0,0,2.7297298,-1.513517,1.488321)" />
  </defs>
  <metadata
     id="metadata3054">
    <rdf:RDF>
      <cc:Work
         rdf:about="">
        <dc:format>image/svg+xml</dc:format>
        <dc:type
           rdf:resource="http://purl.org/dc/dcmitype/StillImage" />
        <dc:title />
      </cc:Work>
    </rdf:RDF>
  </metadata>
  <path
     d="m 119,118.00181 a 55,6 0 0 1 -109.9999975,0 55,6 0 1 1 109.9999975,0 z"
     id="path3041"
     style="opacity:0.2;color:#000000;fill:url(#radialGradient3213);fill-opacity:1;fill-rule:nonzero;stroke:none;stroke-width:1;marker:none;visibility:visible;display:inline;overflow:visible;enable-background:accumulate" />
  <g
     transform="matrix(2.6999989,0,0,0.55555607,-0.8000075,94.890689)"
     id="g2036"
     style="display:inline">
    <g
       transform="matrix(1.052632,0,0,1.285713,-1.263158,-13.42854)"
       id="g3712"
       style="opacity:0.4">
      <rect
         width="5"
         height="7"
         x="38"
         y="40"
         id="rect2801"
         style="fill:url(#radialGradient4093);fill-opacity:1;stroke:none" />
      <rect
         width="5"
         height="7"
         x="-10"
         y="-47"
         transform="scale(-1,-1)"
         id="rect3696"
         style="fill:url(#radialGradient4095);fill-opacity:1;stroke:none" />
      <rect
         width="28"
         height="7.0000005"
         x="10"
         y="40"
         id="rect3700"
         style="fill:url(#linearGradient4097);fill-opacity:1;stroke:none" />
    </g>
  </g>
  <rect
     width="102"
     height="102"
     rx="5"
     ry="5"
     x="13"
     y="16"
     id="rect5505-21-3"
     style="color:#000000;fill:url(#linearGradient3288-4);fill-opacity:1;fill-rule:nonzero;stroke:none;stroke-width:0.99999994;marker:none;visibility:visible;display:inline;overflow:visible;enable-background:accumulate" />
  <rect
     width="104"
     height="3"
     rx="0"
     ry="0"
     x="12"
     y="41"
     id="rect3508"
     style="opacity:0.15;fill:url(#linearGradient3285);fill-opacity:1;fill-rule:nonzero;stroke:none;stroke-width:1;marker:none;visibility:visible;display:inline;overflow:visible;enable-background:accumulate" />
  <path
     d="m 12.5,40.237863 0,72.643787 c 0,3.11257 2.505709,5.61835 5.618181,5.61835 l 91.763629,0 c 3.11248,0 5.61819,-2.50578 5.61819,-5.61835 l 0,-72.643787"
     id="rect4567"
     style="opacity:0.3;fill:none;stroke:#000000;stroke-width:0.99999994;stroke-miterlimit:4;stroke-dasharray:none" />
  <path
     d="m 102.5,91.5 -76.999991,0 z m -0.0567,-35.923473 -76.943289,-0.05745 0,48.980923 76.999989,0 z M 102.5,80.5 25.500009,80.5 M 102.5,68.5 25.500009,68.5 M 40.552163,55.627642 40.447837,104.5 M 55.51002,55.840378 55.489979,104.5 M 70.48923,55.670188 70.51077,104.5 m 14.950335,-49 0.07779,49"
     id="rect4188-6-4-0"
     style="opacity:0.2;color:#000000;fill:none;stroke:#ffffff;stroke-width:0.99999994;stroke-linecap:butt;stroke-linejoin:miter;stroke-miterlimit:4;stroke-opacity:1;stroke-dasharray:none;stroke-dashoffset:0;marker:none;visibility:visible;display:inline;overflow:visible;enable-background:accumulate" />
  <rect
     width="101"
     height="101"
     rx="5"
     ry="5"
     x="13.499989"
     y="16.501808"
     id="rect6741-7"
     style="fill:none;stroke:url(#linearGradient3202);stroke-width:0.99999994;stroke-linecap:round;stroke-linejoin:round;stroke-miterlimit:4;stroke-opacity:1;stroke-dasharray:none;stroke-dashoffset:0" />
  <path
     d="M 18.118181,15.5 C 15.005709,15.5 12.5,18.073077 12.5,21.269231 l 0,19.230769 103,0 0,-19.230769 C 115.5,18.073077 112.99429,15.5 109.88181,15.5 z"
     id="rect5505-21-3-8-5-2-6-1"
     style="color:#000000;fill:url(#linearGradient3278);fill-opacity:1;fill-rule:nonzero;stroke:none;stroke-width:0.99999994;marker:none;visibility:visible;display:inline;overflow:visible;enable-background:accumulate" />
  <path
     d="m 18.118181,15.500001 c -3.112472,0 -5.618181,2.573078 -5.618181,5.769232 l 0,19.230769 103,0 0,-19.230769 c 0,-3.196154 -2.50571,-5.769232 -5.61819,-5.769232 z"
     id="rect5505-21-3-8-9-1-1-7-8"
     style="opacity:0.4;color:#000000;fill:none;stroke:#126400;stroke-width:0.99999994;stroke-linecap:round;stroke-linejoin:miter;stroke-miterlimit:4;stroke-opacity:1;stroke-dasharray:none;stroke-dashoffset:0;marker:none;visibility:visible;display:inline;overflow:visible;enable-background:accumulate" />
  <path
     d="m 11.464567,11.472441 a 1.1023622,1.0472441 0 1 1 -2.2047246,0 1.1023622,1.0472441 0 1 1 2.2047246,0 z"
     transform="matrix(2.2678572,0,0,2.387218,3.9999998,1.6127831)"
     id="path4682-6"
     style="opacity:0.3;color:#000000;fill:#ffffff;fill-opacity:1;fill-rule:nonzero;stroke:none;stroke-width:1.07444978;marker:none;visibility:visible;display:inline;overflow:visible;enable-background:accumulate" />
  <path
     d="m 11.464567,11.472441 a 1.1023622,1.0472441 0 1 1 -2.2047246,0 1.1023622,1.0472441 0 1 1 2.2047246,0 z"
     transform="matrix(2.2678572,0,0,2.387218,3.9999998,0.61278301)"
     id="path4682-6-1"
     style="opacity:0.4;color:#000000;fill:#126400;fill-opacity:1;fill-rule:nonzero;stroke:none;stroke-width:1.07444978;marker:none;visibility:visible;display:inline;overflow:visible;enable-background:accumulate" />
  <path
     d="m 18.5,16.5 c -2.77,0 -5,2.23 -5,5 l 0,18 101,0 0,-18 c 0,-2.77 -2.23,-5 -5,-5 z"
     id="rect6741-7-0"
     style="opacity:0.5;fill:none;stroke:url(#linearGradient4148);stroke-width:0.99999994;stroke-linecap:round;stroke-linejoin:round;stroke-miterlimit:4;stroke-opacity:1;stroke-dasharray:none;stroke-dashoffset:0" />
  <path
     d="m 11.464567,11.472441 a 1.1023622,1.0472441 0 1 1 -2.2047246,0 1.1023622,1.0472441 0 1 1 2.2047246,0 z"
     transform="matrix(2.2678572,0,0,2.387218,77,1.6127829)"
     id="path4682-6-4"
     style="opacity:0.3;color:#000000;fill:#ffffff;fill-opacity:1;fill-rule:nonzero;stroke:none;stroke-width:1.07444978;marker:none;visibility:visible;display:inline;overflow:visible;enable-background:accumulate" />
  <path
     d="m 11.464567,11.472441 a 1.1023622,1.0472441 0 1 1 -2.2047246,0 1.1023622,1.0472441 0 1 1 2.2047246,0 z"
     transform="matrix(2.2678572,0,0,2.387218,77,0.61278291)"
     id="path4682-6-1-0"
     style="opacity:0.4;color:#000000;fill:#126400;fill-opacity:1;fill-rule:nonzero;stroke:none;stroke-width:1.07444978;marker:none;visibility:visible;display:inline;overflow:visible;enable-background:accumulate" />
  <path
     d="m 102.5,90.5 -76.999991,0 z m -0.0567,-35.923473 -76.943289,-0.05745 0,48.980923 76.999989,0 z M 102.5,79.5 25.500009,79.5 M 102.5,67.5 25.500009,67.5 M 40.552163,54.627642 40.447837,103.5 M 55.51002,54.840378 55.489979,103.5 M 70.48923,54.670188 70.51077,103.5 m 14.950335,-49 0.07779,49"
     id="rect4188-6-4-0-1"
     style="opacity:0.25;fill:none;stroke:#5e553c;stroke-width:0.99999994;stroke-miterlimit:4;stroke-opacity:1;stroke-dasharray:none" />
</svg>

<svg xmlns="http://www.w3.org/2000/svg" viewBox="0 0 128 128"><defs><radialGradient id="b" gradientUnits="userSpaceOnUse" cy="43.5" cx="4.993" gradientTransform="matrix(2.0038 0 0 1.4 27.988 -17.4)" r="2.5"><stop stop-color="#181818" offset="0"/><stop stop-color="#181818" stop-opacity="0" offset="1"/></radialGradient><radialGradient id="c" gradientUnits="userSpaceOnUse" cy="43.5" cx="4.993" gradientTransform="matrix(2.0038 0 0 1.4 -20.012 -104.4)" r="2.5"><stop stop-color="#181818" offset="0"/><stop stop-color="#181818" stop-opacity="0" offset="1"/></radialGradient><linearGradient id="d" y2="39.999" gradientUnits="userSpaceOnUse" x2="25.058" y1="47.028" x1="25.058"><stop stop-color="#181818" stop-opacity="0" offset="0"/><stop stop-color="#181818" offset=".5"/><stop stop-color="#181818" stop-opacity="0" offset="1"/></linearGradient><linearGradient id="g" y2="43" gradientUnits="userSpaceOnUse" x2="24" gradientTransform="translate(-1.514 1.488) scale(2.7297)" y1="5" x1="24"><stop stop-color="#fff" offset="0"/><stop stop-color="#fff" stop-opacity=".235" offset=".063"/><stop stop-color="#fff" stop-opacity=".157" offset=".951"/><stop stop-color="#fff" stop-opacity=".392" offset="1"/></linearGradient><radialGradient id="a" gradientUnits="userSpaceOnUse" cy="93.468" cx="-4.029" gradientTransform="matrix(1.5564 0 0 .1698 70.27 102.13)" r="35.338"><stop offset="0"/><stop stop-opacity="0" offset="1"/></radialGradient><linearGradient id="h" y2="48.934" gradientUnits="userSpaceOnUse" x2="24.17" gradientTransform="matrix(1.8727 0 0 1.923 4.073 6.846)" y1="-12.242" x1="24.17"><stop stop-color="#cdf87e" offset="0"/><stop stop-color="#a2e34f" offset=".262"/><stop stop-color="#68b723" offset=".661"/><stop stop-color="#1d7e0d" offset="1"/></linearGradient><linearGradient id="f" y2="19.963" gradientUnits="userSpaceOnUse" x2="23.954" gradientTransform="matrix(2.6 0 0 .75 1.6 29)" y1="15.999" x1="23.954"><stop offset="0"/><stop stop-opacity="0" offset="1"/></linearGradient><linearGradient id="e" y2="48.396" gradientUnits="userSpaceOnUse" x2="25.132" gradientTransform="matrix(2.3698 0 0 2.2724 7.124 6.27)" y1="15.5" x1="25.132"><stop stop-color="#fafafa" offset="0"/><stop stop-color="#e2e1de" offset="1"/></linearGradient><linearGradient id="i" y2="43" gradientUnits="userSpaceOnUse" x2="24" gradientTransform="translate(-1.514 1.488) scale(2.7297)" y1="5" x1="24"><stop stop-color="#fff" offset="0"/><stop stop-color="#fff" stop-opacity=".235" offset=".063"/><stop stop-color="#fff" stop-opacity=".157" offset=".951"/><stop stop-color="#fff" stop-opacity=".392" offset="1"/></linearGradient></defs><path opacity=".2" d="M119 118a55 6 0 0 1-110 0 55 6 0 1 1 110 0z" fill="url(#a)" color="#000"/><g opacity=".4"><path fill="url(#b)" d="M38 40h5v7h-5z" transform="matrix(2.84202 0 0 .71428 -4.21 87.43)"/><path transform="matrix(-2.84202 0 0 -.71428 -4.21 87.43)" fill="url(#c)" d="M-10-47h5v7h-5z"/><path fill="url(#d)" d="M10 40h28v7H10z" transform="matrix(2.84202 0 0 .71428 -4.21 87.43)"/></g><rect rx="5" ry="5" viewBox="0 0 102 102" y="16" x="13" fill="url(#e)" color="#000"/><rect opacity=".15" rx="0" ry="0" height="3" width="104" y="41" x="12" fill="url(#f)"/><g fill="none"><path opacity=".3" d="M12.5 40.238v72.644a5.606 5.606 0 0 0 5.618 5.618h91.764a5.606 5.606 0 0 0 5.618-5.618V40.238" stroke="#000"/><path opacity=".2" d="M102.5 91.5h-77zm-.057-35.923L25.5 55.52v48.98h77zm.06 24.923h-77m77-12h-77m15.052-12.872L40.45 104.5m15.063-48.66l-.02 48.66m15-48.83l.02 48.83m14.95-49l.08 49" stroke="#fff" color="#000"/><rect stroke-linejoin="round" rx="5" ry="5" height="101" width="101" stroke="url(#g)" stroke-linecap="round" y="16.502" x="13.5"/></g><g color="#000"><path d="M18.118 15.5c-3.112 0-5.618 2.573-5.618 5.77V40.5h103V21.27c0-3.197-2.51-5.77-5.62-5.77z" fill="url(#h)"/><path opacity=".4" d="M18.118 15.5c-3.112 0-5.618 2.573-5.618 5.77V40.5h103V21.27c0-3.197-2.506-5.77-5.618-5.77z" stroke="#126400" stroke-linecap="round" fill="none"/><path opacity=".3" d="M30 29a2.5 2.5 0 1 1-5 0 2.5 2.5 0 1 1 5 0z" fill="#fff"/><path opacity=".4" d="M30 28a2.5 2.5 0 1 1-5 0 2.5 2.5 0 1 1 5 0z" fill="#126400"/></g><path opacity=".5" stroke-linejoin="round" d="M18.5 16.5c-2.77 0-5 2.23-5 5v18h101v-18c0-2.77-2.23-5-5-5z" stroke="url(#i)" stroke-linecap="round" fill="none"/><path opacity=".3" d="M103 29a2.5 2.5 0 1 1-5 0 2.5 2.5 0 1 1 5 0z" fill="#fff" color="#000"/><path opacity=".4" d="M103 28a2.5 2.5 0 1 1-5 0 2.5 2.5 0 1 1 5 0z" fill="#126400" color="#000"/><path opacity=".25" d="M102.5 90.5h-77zm-.057-35.923L25.5 54.52v48.98h77zm.06 24.923h-77m77-12h-77m15.052-12.872L40.45 103.5m15.063-48.66l-.02 48.66m15-48.83l.02 48.83m14.95-49l.08 49" stroke="#5e553c" fill="none"/></svg>
